currency-rub.svg

<svg fill="currentColor" viewBox="0 0 24 24"><path d="M13.5 3H7v9H5v2h2v2H5v2h2v3h2v-3h4v-2H9v-2h4.5c3.04 0 5.5-2.46 5.5-5.5S16.54 3 13.5 3m0 9H9V5h4.5C15.43 5 17 6.57 17 8.5S15.43 12 13.5 12"/></svg>

<svg  viewBox="0 0 24 24" fill="currentColor"><path  d="M13.5 3H7V12H5V14H7V16H5V18H7V21H9V18H13V16H9V14H13.5C16.54 14 19 11.54 19 8.5S16.54 3 13.5 3M13.5 12H9V5H13.5C15.43 5 17 6.57 17 8.5S15.43 12 13.5 12Z"/></svg>
